X: 19943
T: Jigastrophe
R: jig
M: 6/8
K: Dmajor
|:FEF Bcd|cBA B2 B|BAB e2 f|edB A3|
ABd ede|fef gfe|fBcc2 c|dcB GBd|cBA B3:|
|:baf g2 g|gfe f2 f|fed cde|1 feb f3:|2 fed A3||

